svg/u0036.svg

<svg viewBox="0 0 2600 2760.837" xmlns="http://www.w3.org/2000/svg"><path d="M1676 408.5q68 7.5 104 18.5v212q-48-16-108.5-24.5t-119.5-8.5q-198 0-333 80.5t-208.5 249.5-87.5 476h17q66-119 174-176t246-57q267 0 418.5 162t151.5 446q0 312-164.5 492.5t-443.5 180.5q-298 0-475.5-232t-177.5-652q0-599 219.5-887t655.5-288q64 0 132 7.5z m-82 1072.5q-95-106-266-106-175 0-292.5 112t-117.5 252q0 207 110.5 359t290.5 152q172 0 271-117t99-346q0-200-95-306z"/></svg>

<svg viewBox="0 0 2600 2760.837" xmlns="http://www.w3.org/2000/svg"><path d="M1676 408.5q68 7.5 104 18.5v212q-48-16-108.5-24.5T1552 606q-198 0-333 80.5T1010.5 936 923 1412h17q66-119 174-176t246-57q267 0 418.5 162t151.5 446q0 312-164.5 492.5T1322 2460q-298 0-475.5-232T669 1576q0-599 219.5-887T1544 401q64 0 132 7.5zM1594 1481q-95-106-266-106-175 0-292.5 112T918 1739q0 207 110.5 359t290.5 152q172 0 271-117t99-346q0-200-95-306z"/></svg>
